svg/furkot/mapbox-maki/warehouse.svg

<svg viewBox="0 0 512 512" xmlns="http://www.w3.org/2000/svg"><path d="m487.754 180.018c-2.969.012-5.899-.655-8.574-1.95l-225.276-114.975-225.277 114.197c-10.008 4.736-21.961.46-26.696-9.55-4.736-10.01-.46-21.961 9.549-26.698l242.424-120.042 242.426 120.042c10.76 2.371 17.57 13.014 15.199 23.775-2.369 10.762-13.013 17.57-23.775 15.201zm-331.287 194.876h-116.926v116.925h116.926zm155.899 0h-116.925v116.925h116.925zm155.902 0h-116.926v116.925h116.926zm-77.951-155.901h-116.925v116.925h116.925zm-155.9 0h-116.926v116.925h116.926z"/></svg>

<svg viewBox="0 0 512 512" xmlns="http://www.w3.org/2000/svg"><path d="M 487.754 180.018 C 484.785 180.03 481.855 179.363 479.18 178.068 L 253.904 63.093 L 28.627 177.29 C 18.619 182.026 6.666 177.75 1.931 167.74 C -2.805 157.73 1.471 145.779 11.48 141.042 L 253.904 21 L 496.33 141.042 C 507.09 143.413 513.9 154.056 511.529 164.817 C 509.16 175.579 498.516 182.387 487.754 180.018 Z M 156.467 374.894 L 39.541 374.894 L 39.541 491.819 L 156.467 491.819 L 156.467 374.894 Z M 312.366 374.894 L 195.441 374.894 L 195.441 491.819 L 312.366 491.819 L 312.366 374.894 Z M 468.268 374.894 L 351.342 374.894 L 351.342 491.819 L 468.268 491.819 L 468.268 374.894 Z M 390.317 218.993 L 273.392 218.993 L 273.392 335.918 L 390.317 335.918 L 390.317 218.993 Z M 234.417 218.993 L 117.491 218.993 L 117.491 335.918 L 234.417 335.918 L 234.417 218.993 Z"/></svg>
